X:794
T:Philandering
C:Blackman, 1826
S:Colin Hume's website,  colinhume.com  - chords can also be printed below the stave.
Q:3/8=112
M:6/8
R:Jig
L:1/8
B:Blackman - 24 Country Dances and Quadrilles for 1826
K:D
|: f | "D"a2a fed | "A"efd cBA | "G"B2g "D/F#"A2f | "Em"e2d "A"cBA |\
"G"BGB dcB | "D"AFA dcB | "A"ABA ABc | "A7"e3 "D"d2 :|
P:B
|: a/g/ | "D"fga def | "G"Bcd G2b/a/ | "Em"gab efg | "A"cde A2a/g/ |\
"D7"fga def | "Em"gab efg | "D/A"faf "A7"ecA | "D"d3-d2 :|

